!!!COM: girls
!!!OTL: lust-for-life
!!!RNB: hooktheoryid: l_NgbODbxQA
**kern	**text
*clefG2	*
*k[b-e-a-d-g-c-]	*
*M4/4	*
=1	=1
4g-	B
2a-	.
[8rL	.
8r]J	Abm
=2	=2
4.r	.
8b-	.
8b-	.
8b-	.
8a-	.
8g-	.
=3	=3
8dd-	Gb
4dd-	.
4dd-	.
8b-	.
8dd-	.
[8b-	Gbmaj7
=4	=4
8b-]	.
4r	.
8dd-	.
8dd-	.
8b-	.
8a-	.
8g-	.
=5	=5
4a-	B
2b-	.
[8rL	.
8r]J	Abm
=6	=6
2r	.
8r	.
8b-	.
8a-	.
8g-	.
=7	=7
8dd-	Gb
8b-	.
8dd-	.
8b-	.
8dd-	.
4ee-	.
[8b-	Gbmaj7
=8	=8
8b-]	.
2..r	.
*-	*-